svg/m/GF.svg

<svg width="20" height="15" viewBox="0 0 20 15" fill="none" xmlns="http://www.w3.org/2000/svg">
<g clip-path="url(#clip0_270_60925)">
<rect width="20" height="15" fill="white"/>
<rect width="20" height="15" fill="#5EAA22"/>
<path fill-rule="evenodd" clip-rule="evenodd" d="M0 0L20 15H0V0Z" fill="#FECA00"/>
<path fill-rule="evenodd" clip-rule="evenodd" d="M9.95666 9.00393L7.77814 10.515L8.47426 7.9269L6.875 6.27363L9.04048 6.18424L9.95666 3.625L10.8728 6.18424H13.0346L11.4391 7.9269L12.2381 10.3622L9.95666 9.00393Z" fill="#E21835"/>
</g>
<defs>
<clipPath id="clip0_270_60925">
<rect width="20" height="15" fill="white"/>
</clipPath>
</defs>
</svg>

<svg width="20" height="15" fill="none" xmlns="http://www.w3.org/2000/svg">
  <mask id="a" maskUnits="userSpaceOnUse" x="0" y="0" width="20" height="15">
    <path fill="#fff" d="M0 0h20v15H0z"/>
  </mask>
  <g mask="url(#a)">
    <path fill="#5EAA22" d="M0 0h20v15H0z"/>
    <path fill-rule="evenodd" clip-rule="evenodd" d="M0 0l20 15H0V0z" fill="#FECA00"/>
    <path fill-rule="evenodd" clip-rule="evenodd" d="M9.957 9.004l-2.179 1.511.696-2.588-1.599-1.653 2.165-.09.917-2.559.916 2.56h2.162l-1.596 1.742.8 2.435-2.282-1.358z" fill="#E21835"/>
  </g>
</svg>
